X:705
T: Remembering Reavy
C: BB
R: reel
Q: 1/8=350
M: 4/4
L: 1/8
K: Gmix
"G"G2 dc BcdB|"F"F2 cB ABcA|"G"G2 dc Bcde|"F"fgag "Dm7"fdcA|
"G"G2 dc BcdB|"F"F2 cB ABcA|"G"G2 dc BcdB|"D7"cA^FA "G"BG G2 :|
"G"d2 Bd gdBd|"F"c2 Ac fcAc|"G"d2 Bd gaba|"G"gd^cd "F"=cAFA|
"G"d2 Bd gdBd|"F"c2 Ac fcAc|"G"Bd (3d^cd "F"=cf (3fef|\
"D7"cA^FA "G"BG G2 :|
%%%%%%%%%%%%%%%%%%%%%%%%%%%%%%%%%%%%%%%%%%%
